!!!COM: Beethoven, Ludwig van
!!!CDT: 1770///-1827///
!!!OTL: Piano Sonata no. 32 in C minor
!!!ODT: 1821///-1822///
!!!ODE: Ersterzog Rudolph von &Ouml;sterreich
!!!OPS: 111
!!!OMV: 1
!!!OMD: Maestoso---Allegro con brio ed appassionato
**kern	**dynam	**kern	**dynam
*Ipiano	*Ipiano	*Ipiano	*Ipiano
*>[A,B,B1,B,B2,C]	*>[A,B,B1,B,B2,C]	*>[A,B,B1,B,B2,C]	*>[A,B,B1,B,B2,C]
*>norep[A,B,B2,C]	*>norep[A,B,B2,C]	*>norep[A,B,B2,C]	*>norep[A,B,B2,C]
*>A	*>A	*>A	*>A
*clefF4	*clefF4	*clefG2	*clefG2
*k[b-e-a-]	*k[b-e-a-]	*k[b-e-a-]	*k[b-e-a-]
*c:	*c:	*c:	*c:
*M4/4	*M4/4	*M4/4	*M4/4
*MM60	*MM60	*MM60	*MM60
32E-\ 32e-\	.	32r	.
=1	=1	=1	=1
8..FF#/ 8..F#/L	.	8..r	.
32FFF#/ 32FF#/Jkk	.	32e-/ 32a/ 32cc/ 32ee-/	f
[4FF#/ [4F#/	.	[4e-/ [4a/ [4cc/ [4ee-/	.
8..FF#\] 8..F#\L]	.	8..e-/] 8..a/] 8..cc/] 8..ee-/L]	.
32F#\ 32e-\Jkk	.	32a/ 32cc/Jkk	.
*	*	*^	*
4F#\ 4e-\	.	8.cc/L	4a\	.
.	.	32b/LL	.	.
.	.	32cc/JJJ	.	.
*	*	*v	*v	*
=2	=2	=2	=2
8G\ 8d\	.	8g/ 8b/	p
8r	.	8r	.
8C\ 8G\ 8c\	.	8e-/ 8g/ 8cc/	.
8r	.	8r	.
(BBBq/LLL	.	(dq/LLL	.
DDq/	.	gq/	.
GGq/	.	bq/JJJ	.
BBq/	.	.	.
Dq/	.	.	.
Gq/	.	.	.
Bq/JJJ)	.	.	.
8BBB/ 8BB/	.	8d/ 8g/ 8dd/)	f
8r	.	8r	.
8..r	.	4r	.
32A-\ 32a-\	f	.	.
=3	=3	=3	=3
8..BB/ 8..B/L	.	8..r	.
32BBB/ 32BB/Jkk	.	32a-\ 32dd\ 32ff\ 32aa-\	f
[4BB\ [4B\	.	[4a-\ [4dd\ [4ff\ [4aa-\	.
8..BB/] 8..B/L]	.	8..a-\] 8..dd\] 8..ff\] 8..aa-\L]	.
*clefG2	*clefG2	*	*
32B/ 32a-/Jkk	.	32dd\ 32ff\Jkk	.
*	*	*^	*
4B/ 4a-/	.	4dd\	8.ff/L	.
.	.	.	32ee/LL	.
.	.	.	32ff/JJJ	.
*clefF4	*clefF4	*	*	*
*	*	*v	*v	*
=4	=4	=4	=4
8B-\ 8d-\	.	8g\ 8ee\	p
8r	.	8r	.
8A-\ 8c\	.	8f\ 8cc\ 8ff\	.
8r	.	8r	.
EEq/LLL	.	gq/LLL	.
GGq/	.	ccq/	.
Cq/	.	eeq/JJJ	.
Eq/	.	.	.
Gq/	.	.	.
cq/	.	.	.
eq/JJJ	.	.	.
8EE/ 8E/	.	8g\ 8cc\ 8gg\	f
8r	.	8r	.
8..r	.	4r	.
32D-\ 32d-\	f	.	.
=5	=5	=5	=5
8..EE\ 8..E\L	.	8..r	.
32FF\ 32F\Jkk	.	32dd-\ 32ff\ 32bb-\ 32ddd-\	f
[4FF\ [4F\	.	([4dd-\ 4ff\ [4bb-\ [4ddd-\	.
8..FF\] 8..F\L]	.	8..dd-\]) 8..ff\ 8..bb-\] 8..ddd-\L]	.
32F\ 32B-\ 32d-\Jkk	.	32dd-\ 32bb-\Jkk	.
*	*	*^	*
4F\ 4B-\ 4d-\	.	4dd-\	8.bb-/L	.
.	.	.	32aa/LL	.
.	.	.	32bb-/JJJ	.
*	*	*v	*v	*
=6	=6	=6	=6
8..G-\ 8..B-\ 8..d-\L	.	8..dd-\ 8..ee-\ 8..bb-\L	.
32G\ 32B-\ 32d-\Jkk	.	32dd-\ 32ee-\ 32bb-\Jkk	.
([4G\ 4B-\ [4d-\	.	[4dd-\ [4ee-\ [4bb-\	.
8..G\]) 8..B-\ 8..d-\L]	.	8..dd-\] 8..ee-\] 8..bb-\L]	.
32A-\ 32c\Jkk	.	32cc\ 32ee-\ 32aa-\Jkk	.
8..A-\ 8..c\L	.	8..cc\ 8..ee-\ 8..aa-\L	.
32A\ 32e-\ 32g-\Jkk	.	32cc\ 32ee-\ 32gg-\Jkk	.
=7	=7	=7	=7
8..A\ 8..e-\ 8..g-\L	.	8..cc\ 8..ee-\ 8..gg-\L	pp
32B-\ 32e-\ 32g-\Jkk	.	32b-\ 32ee-\ 32gg-\Jkk	.
[4B-\ [4e-\ [4g-\	.	[4b-\ [4ee-\ [4gg-\	.
8..B-\] 8..e-\] 8..g-\L]	.	8..b-\] 8..ee-\] 8..gg-\L]	.
32c-\ 32e-\ 32g-\Jkk	.	32a\ 32ee-\ 32gg-\Jkk	.
8..c-\ 8..e-\ 8..g-\L	.	8..a\ 8..ee-\ 8..gg-\L	.
32c\ 32e-\ 32g-\Jkk	.	32a-\ 32ee-\ 32gg-\Jkk	.
=8	=8	=8	=8
8..c\ 8..e-\ 8..g-\L	.	8..a-\ 8..ee-\ 8..gg-\L	pp
32d-\ 32f\Jkk	.	32a-\ 32dd-\ 32ff\Jkk	.
[4d-\ [4f\	.	[4a-\ [4dd-\ [4ff\	.
8..d-\] 8..f\L]	.	8..a-\] 8..dd-\] 8..ff\L]	.
32d\ 32f\Jkk	.	32a-\ 32cc-\ 32ff\Jkk	.
8..d\ 8..f\L	.	8..a-\ 8..cc-\ 8..ff\L	.
32DD\ 32D\Jkk	.	32a-\ 32cc-\ 32ff\Jkk	.
=9	=9	=9	=9
8..DD/ 8..D/L	.	8..a-\ 8..cc-\ 8..ff\L	.
[32EE-/ 32E-/Jkk	.	32a-\ 32cc\ 32ee-\Jkk	.
4EE-/_ [4E-/	.	[4a-\ [4cc\ [4ee-\	.
8..EE-/] 8..E-/L]	.	8..a-\] 8..cc\] 8..ee-\L]	.
32EE-/ 32E-/Jkk	.	32a-\ 32cc\ 32ee-\Jkk	.
8..EE-/ 8..E-/L	.	8..a-\ 8..cc\ 8..ee-\L	.
32EE/ 32E/Jkk	.	32g\ 32b-\ 32dd-\Jkk	.
=10	=10	=10	=10
8..EE/ 8..E/L	.	8..g/ 8..b-/ 8..dd-/L	.
32FF/ 32F/Jkk	.	32f/ 32b-/ 32dd-/Jkk	.
8..FF/ 8..F/L	.	8..f/ 8..b-/ 8..dd-/L	.
32GG/ 32G/Jkk	.	32e/ 32b-/ 32dd-/Jkk	.
8GG'/ 8G'/L	.	8e/ 8b-/ 8dd-/L	f
8AA-'/ 8A-'/	.	8c'/ 8f'/ 8cc'/	.
8AA-'/ 8A-'/	.	8c'/ 8f'/ 8cc'/	.
8AAA-'/ 8AA-'/J	.	8c'/ 8f#'/ 8cc'/J	.
=11	=11	=11	=11
8GGG'/ 8GG'/	.	8d'/ 8g'/ 8b'/	.
8G\L	.	8r	.
8G\	.	4r	.
8G\ 8A-\J	.	.	.
8F\ 8A-\L	.	4r	.
8F\ 8G\	.	.	.
*	*	*^	*
8F\ 8G\	.	(4g/	8r	p
8E-\ 8G\J	.	.	8c\	.
=12	=12	=12	=12	=12
*^	*	*	*	*
8G/L	(4E-\	.	4a/	4c\ 4f#\	.
8G/	.	.	.	.	.
8G/	4D\	.	4b/	4d\ 4f\	.
8G/J	.	.	.	.	.
8G/L	4C\)	.	4cc/)	4e-\ 4g\	.
8G/	.	.	.	.	.
*	*	*	*v	*v	*
8G/	(8..FF#\L	.	(8..e-/ 8..a/ 8..cc/L	.
[8G/J	.	.	.	.
.	32GG\Jkk)	.	32d/) 32g/ 32b/Jkk	.
*v	*v	*	*	*
=13	=13	=13	=13
8GG/ 8G/L]	.	4.d/ 4.g/ 4.b/	.
8GG/	.	.	.
8GG/	.	.	.
8GG/ 8AA-/J	.	8r	.
8FF/ 8AA-/L	.	4r	.
8FF/ 8GG/	.	.	.
*	*	*clefF4	*clefF4
*	*	*^	*
8FF/ 8GG/	.	(4G/	8r	.
8EE-/ 8GG/J	.	.	8C\	p
*	*	*v	*v	*
=14	=14	=14	=14
*^	*	*	*
8GG/L	(4EE-\	.	4C\ 4F#\ 4A\	.
8GG/	.	.	.	.
8GG/	4DD\	.	4D\ 4F\ 4B\	.
8GG/J	.	.	.	.
8GG/L	4CC\)	.	4E-\ 4G\ 4c\)	.
8GG/	.	.	.	.
8GG/	(8..FFF#\L	.	8..E-\ 8..A\ (8..c\L	.
[8GG/J	.	.	.	.
.	32GGG\Jkk)	.	32D\ 32G\ 32B\Jkk)	.
=15	=15	=15	=15	=15
8GG/L]	2GGG\	.	2D\ 2G\ 2B\	.
8GG/	.	.	.	.
8GG/	.	.	.	.
8GG/J	.	.	.	.
8GG/L	2GGG\	.	4..D\ 4..G\ 4..B\	.
8GG/	.	.	.	.
8GG/	.	.	.	.
8GG/J	.	.	.	.
.	.	.	16D\ 16G\ 16B\	.
*v	*v	*	*	*
=16	=16	=16	=16
32GGG/LLL	.	1D 1G 1B	pp
32AAA-/	.	.	.
32GGG/	.	.	.
32AAA-/	.	.	.
32GGG/	.	.	.
32AAA-/	.	.	.
32GGG/	.	.	.
32AAA-/JJJ	.	.	.
32GGG/LLL	.	.	.
32AAA-/	.	.	.
32GGG/	.	.	.
32AAA-/	.	.	.
32GGG/	.	.	.
32AAA-/	.	.	.
32GGG/	.	.	.
32AAA-/JJJ	.	.	.
32GGG/LLL	.	.	.
32AAA-/	.	.	.
32GGG/	.	.	.
32AAA-/	.	.	.
32GGG/	.	.	.
32AAA-/	.	.	.
32GGG/	.	.	.
32AAA-/JJJ	.	.	.
32GGG/LLL	.	.	.
32AAA-/	.	.	.
32GGG/	.	.	.
32AAA-/	.	.	.
32GGG/	.	.	.
32AAA-/	.	.	.
32GGG/	.	.	.
32AAA-/JJJ	.	.	.
=17	=17	=17	=17
*MM120	*MM120	*MM120	*MM120
16GGG/LL	.	1D 1G 1B 1d	.
16AAA-/	.	.	.
16GGG/	.	.	.
16AAA-/JJ	.	.	.
16GGG/LL	.	.	.
16AAA-/	.	.	.
16GGG/	.	.	.
16AAA-/JJ	.	.	.
16GGG/LL	.	.	.
16AAA-/	.	.	.
16GGG/	.	.	.
16AAA-/JJ	.	.	.
16GGG/LL	.	.	.
16AAA-/	.	.	.
16GGG/	.	.	.
16AAA-/JJ	.	.	.
*	*	*clefG2	*clefG2
=18	=18	=18	=18
16GGG/LL	.	16G/ 16B/ 16d/ 16g/LL	.
*	*	*clefF4	*clefF4
16AAA-/	.	16AA-/	.
16GGG/	.	16GG/	.
16AAA-/JJ	.	16AA-/JJ	.
16GGG/LL	.	16GG/LL	.
16AAA-/	.	16AA-/	.
16GGG/	.	16GG/	.
16AAA-/JJ	.	16AA-/JJ	.
16GGG/LL	.	16GG/LL	.
16AAA-/	.	16AA-/	.
16GGG/	.	16GG/	.
16AAA-/JJ	.	16AA-/JJ	.
16GGG/LL	.	16GG/LL	.
16AAA-/	.	16AA-/	.
(16GGG/	.	(16GG/	.
32AAA/L	.	32AA/L	.
32BBB/JJJ)	.	32BB/JJJ)	.
=19!|:	=19!|:	=19!|:	=19!|:
*>B	*>B	*>B	*>B
4CC'/	.	4C'/	f
4r	.	4r	.
4r	.	4r	.
8r	.	8r	.
(24GGG/LL	.	(24GG/LL	ff
24AAA/	.	24AA/	.
24BBB/JJ)	.	24BB/JJ)	.
=20	=20	=20	=20
4CC'/	.	4C'/	.
4EE-'/	.	4E-'\	.
4.BBB/	.	4.BB/	.
(24GGG/LL	.	(24GG/LL	.
24AAA/	.	24AA/	.
24BBB/JJ)	.	24BB/JJ)	.
=21	=21	=21	=21
4CC'/	.	4C'/	.
4EE-'/	.	4E-'\	.
4.BBB/	.	4.BB/	.
8AA-/	.	8A-'\	.
=22	=22	=22	=22
8GG'/L	.	8G'\L	.
8FF'/	.	8F'\	.
8EE-'/	.	8E-'\	.
8DD'/J	.	8D'\J	.
16EE-/LL	.	16E-\LL	.
16FF/	.	16F\	.
16EE-/	.	16E-\	.
16DD/JJ	.	(16D\JJ	.
(8CC/L	.	8C\L	.
8AA-'/J	.	8A-'\J	.
=23	=23	=23	=23
8GG'/L	.	8G'\L	p
8FF'/	.	8F'\	.
8EE-'/	.	8E-'\	.
8DD'/J)	.	8D'\J)	.
(16EE-/LL	.	(16E-\LL	.
16FF/	.	16F\	.
16EE-/	.	16E-\	.
16DD/JJ	.	16D\JJ	.
16CC/LL)	.	16C\LL)	.
16AA-/	.	16A-\	.
16BB-/	.	16B-\	.
16AA-/JJ	.	16A-\JJ	.
=24	=24	=24	=24
16GG/LL	.	16G\LL	.
16AA-/	.	16A-\	.
16GG/	.	16G\	.
16FF/JJ	.	16F\JJ	.
16EE-/LL	.	16E-\LL	.
16FF/	.	16F\	.
16EE-/	.	16E-\	.
16DD/JJ	.	16D\JJ	.
16EE-/LL	.	16E-\LL	.
16FF/	.	16F\	.
16EE-/	.	16E-\	.
16DD/JJ	.	16D\JJ	.
16CC/LL	.	16C\LL	.
16GG/	.	16G\	.
16FF/	.	16F\	.
16EE-/JJ	.	16E-\JJ	.
=25	=25	=25	=25
16FF/LL	.	16F\LL	.
16GG/	.	16G\	.
16FF/	.	16F\	.
16EE-/JJ	.	16E-\JJ	.
16DD/LL	.	16D\LL	.
16AA-/	.	16A-\	.
16GG/	.	16G\	.
16FF/JJ	.	16F\JJ	.
16GG/LL	.	16G\LL	.
16AA-/	.	16A-\	.
16GG/	.	16G\	.
16FF/JJ	.	16F\JJ	.
16EE/LL	.	16E\LL	.
16BB-/	.	16B-\	.
16AA-/	.	16A-\	.
16GG/JJ	.	16G\JJ	.
=26	=26	=26	=26
16AA-/LL	.	16A-\LL	.
16C/	.	16c\	.
16GG/	.	16G\	.
16C/JJ	.	16c\JJ	.
16FF/LL	.	16F\LL	.
16C/	.	16c\	.
16FF#/	.	16F#\	.
16C/JJ	.	16c\JJ	.
16BB/LL	.	16B\LL	.
16AA/	.	16A\	.
16GG/	.	16G\	.
16D/JJ	.	16d\JJ	.
*	*	*clefG2	*clefG2
16C\LL	.	16c/LL	.
16BB\	.	16B/	.
16F\	.	16f/	.
16E-\JJ	.	16e-/JJ	.
=27	=27	=27	=27
16D\LL	.	16d/LL	.
16A-\	.	16a-/	.
16G\	.	16g/	.
16F\JJ	.	16f/JJ	.
*clefG2	*clefG2	*	*
16d/LL	.	16dd\LL	.
16c/	.	16cc\	.
16B/	.	16b\	.
16f/JJ	.	16ff\JJ	.
16e-/LL	.	16ee-\LL	.
16d/	.	16dd\	.
16a-/	.	16aa-\	.
16g/JJ	.	16gg\JJ	.
16f/LL	.	16ff\LL	.
16dd/	.	16ddd\	.
16cc/	.	16ccc\	.
16b/JJ	.	16bb\JJ	.
=28	=28	=28	=28
*	*	*8va	*
16ff\LL	.	16fff\LL	.
16ee-\	.	16eee-\	.
16dd\	.	16ddd\	.
16aa-\JJ	.	16aaa-\JJ	.
16gg\LL	.	16ggg\LL	.
16ff\	.	16fff\	.
16ee-\	.	16eee-\	.
16dd\JJ	.	16ddd\JJ	.
*	*	*X8va	*
16cc/LL	.	16ccc\LL	.
16b/	.	16bb\	.
16a-/	.	16aa-\	.
16g/JJ	.	16gg\JJ	.
16f/LL	.	16ff\LL	.
16e-/	.	16ee-\	.
16d/	.	16dd\	.
16g/JJ	.	16gg\JJ	.
=29	=29	=29	=29
*	*	*^	*
4c/	.	4cc'/	8e-\ 8g\L	.
.	.	.	8e-\ 8g\	.
*clefF4	*clefF4	*	*	*
4CC/ 4C/	.	4ee-'/	8e-\ 8g\	.
.	.	.	8e-\ 8g\J	.
4r	.	4.b/	8f\ 8g\L	.
.	.	.	8f\ 8g\	.
4GGG/ 4GG/	.	.	8f\ 8g\	.
.	.	8aa-/	8f\ 8g\J	.
=30	=30	=30	=30	=30
8r	.	8gg/L	8f\ 8g\L	.
8G\ 8d\L	.	8ff/	8f\ 8g\	.
8G\ 8c\	.	8ee-/	8f\ 8g\	.
8G\ 8B\J	.	8dd/J	8f\ 8g\J	.
4r	.	16ee-/LL	4r	.
.	.	16ff/	.	.
.	.	16ee-/	.	.
.	.	16dd/JJ	.	.
8c\ 8e-\L	.	8cc/L	8g\L	.
8G\ 8f\J	.	(8aa-'/J	8g\J	.
=31	=31	=31	=31	=31
8G\ 8e-\L	.	8gg'/L	8g\L	.
8G\ 8d\	.	8ff'/	8g\ 8b\	.
8G\ 8c\	.	8ee-'/	8g\ 8cc\	.
8G\ 8B\J	.	8dd'/J)	8g\J	.
8r	.	(16ee-/LL	8r	.
.	.	16ff/	.	.
[8c\ [8e-\	.	16ee-/	[8g\	.
.	.	16dd/JJ	.	.
8c\] 8e-\]	.	8cc/	8g\]	.
[8GGG/ [8GG/	.	8aaa-/	16fff\LL)	.
.	.	.	16aa-\JJ	.
=32	=32	=32	=32	=32
8GGG/] 8GG/L]	.	8ggg/L	16eee-\LL	.
.	.	.	16gg\	.
8GGG/ 8GG/	.	8fff/	16ddd\	.
.	.	.	16gg\JJ	.
8AAA/ 8AA/	.	8eee-/	16ccc\LL	.
.	.	.	16gg\	.
8BBB/ 8BB/J	.	8ddd/J	16ddd\	.
.	.	.	16ff\ 16gg\JJ	.
8CC/ 8C/L	.	(8eee-/L	16eee-\LL	.
.	.	.	16gg\	.
8BBB/ 8BB/	.	8ddd/	16ddd\	.
.	.	.	16gg\JJ	.
8CC/ 8C/	.	8ccc/	16ccc\LL	.
.	.	.	16gg\	.
8DD/ 8D/J	.	8bb/J	16bb\)	.
.	.	.	16gg\JJ	.
=33	=33	=33	=33	=33
8EE-/ 8E-/L	.	(8ccc/L	16gg\LL	.
.	.	.	16cc\	.
8EE/ 8E/	.	8bb-/	16gg\	.
.	.	.	16cc\JJ	.
8FF/ 8F/	.	8aa-/	16aa-\LL	.
.	.	.	16cc\	.
8EE/ 8E/J	.	8gg/J	16gg\)	.
.	.	.	16cc\JJ	.
8FF/ 8F/	.	(8aa-/L	16aa-\LL	.
.	.	.	16cc\	.
4A-\ 4c\ 4f\	.	8ff/	16ff\	.
.	.	.	16cc\JJ	.
.	.	8ee-/	16ee-\LL	.
.	.	.	16cc\	.
8A-\ 8c\ 8f\	.	8dd/J	16dd\)	.
.	.	.	16cc\JJ	.
=34	=34	=34	=34	=34
*^	*	*	*	*
4c/	4A-\	.	(8dd/L	4f\	.
.	.	.	8cc/J	.	p
2e-/	(4A-\	.	2cc/)	(4f#\	.
.	4G\	.	.	4g\	.
4e-/	4F#\)	.	4cc/	4a\)	.
*v	*v	*	*	*	*
=35	=35	=35	=35	=35
4G\ 4e-\	.	4cc/	4g\	.
*	*	*v	*v	*
.	.	(bq/LL	.
.	.	ccq/JJ	.
*	*	*^	*
[4G\ 4B\ 4f\	.	(8ee-/L)	4g\	.
.	.	8dd/J	.	f
16G\LL]	.	4cc/)	4c'\	.
16F\	.	.	.	.
16E-\	.	.	.	.
16D\JJ	.	.	.	.
16C\LL	.	4r	4e-'\	.
16D\	.	.	.	.
16E-\	.	.	.	.
16C\JJ	.	.	.	.
*	*	*v	*v	*
=36	=36	=36	=36
16D/LL	.	[4B/	.
16C/	.	.	.
16BB/	.	.	.
16AA/JJ	.	.	.
16GG/LL	.	16B/LL]	.
16BB/	.	16d/	.
16D/	.	16f/	.
16F/JJ	.	16a-/JJ	.
8E-/L	.	16g/LL	.
.	.	16a-/	.
(8GGG/ 8GG/	.	16g/	.
.	.	16f/JJ	.
8CC/ 8C/	.	16e-/LL	.
.	.	16f/	.
8BBB/ 8BB/J	.	16e-/	.
.	.	16d/JJ	.
=37	=37	=37	=37
8CC/ 8C/L	.	16e-/LL	.
.	.	16f/	.
8FF/) 8F/	.	16e-/	.
.	.	16d/JJ	.
8EE-'/ 8E-'/	.	16c/LL	.
.	.	16e-/	.
8CC'/ 8C'/J	.	16g/	.
.	.	16b-/JJ	.
8r	.	16a-/LL	.
.	.	16b-/	.
(8CC/ 8C/L	.	16a-/	.
.	.	16g/JJ	.
8DD/ 8D/	.	16f/LL	.
.	.	16g/	.
8CC/ 8C/J	.	16f/	.
.	.	16e-/JJ	.
=38	=38	=38	=38
8DD/ 8D/L	.	16f/LL	.
.	.	16g/	.
8GG/) 8G/	.	16f/	.
.	.	16e-/JJ	.
8FF'/ 8F'/	.	16d/LL	.
.	.	16f/	.
8EE-'/ 8E-'/J	.	16a-/	.
.	.	16cc/JJ	.
8DD'/ 8D'/L	.	16b-/LL	.
.	.	16cc/	.
8BBB-'/ 8BB-'/	.	16b-/	.
.	.	16a-/JJ	.
8CC'/ 8C'/	.	16g/LL	.
.	.	16a-/	.
8DD'/ 8D'/J	.	16g/	.
.	.	16f/JJ	.
=39	=39	=39	=39
4EE-'/ 4E-'/	.	16g/LL	f
.	.	16b-/	.
.	.	16a-/	.
.	.	16g/JJ	.
4GG/ 4G/	.	16f/LL	.
.	.	16e-/	.
.	.	16d/	.
.	.	16e-/JJ	.
8DD/ 8D/L	.	16f/LL	.
.	.	16c-/	.
[8DD/J	.	16B-/	.
.	.	16c-/JJ	.
16DD/LL]	.	16B-/LL	.
16FF/	.	16d/	.
16AA-/	.	16f/	.
16C/JJ	.	16a-/JJ	.
=40	=40	=40	=40
16BB-/LL	.	(8g/L	.
16C/	.	.	.
16BB-/	.	8F/ 8f/	.
16AA-/JJ	.	.	.
16GG/LL	.	8B-/ 8b-/	.
16AA-/	.	.	.
16GG/	.	8A-/ 8a-/J	.
16FF/JJ	.	.	.
16GG/LL	.	8B-/ 8b-/L	.
16AA-/	.	.	.
16GG/	.	8d-/) 8dd-/	.
16FF/JJ	.	.	.
16EE/LL	.	8c'/ 8cc'/	.
16GG/	.	.	.
16BB-/	.	8G'/ 8g'/J	.
16D-/JJ	.	.	.
=41	=41	=41	=41
16C/LL	.	8r	.
16D-/	.	.	.
16C/	.	(8G/ 8g/L	.
16BB-/JJ	.	.	.
16AA-/LL	.	8c/ 8cc/	.
16BB-/	.	.	.
16AA-/	.	8B-/ 8b-/J	.
16GG/JJ	.	.	.
16AA-/LL	.	8c/ 8cc/L	.
16BB-/	.	.	.
16AA-/	.	8e-/) 8ee-/	.
16GG-/JJ	.	.	.
16FF/LL	.	8e-'/ 8ee-'/	.
16AA/	.	.	.
16C/	.	8A'/ 8a'/J	.
16E-/JJ	.	.	.
=42	=42	=42	=42
16D-/LL	.	8r	.
16E-/	.	.	.
16D-/	.	(8B-/ 8b-/L	.
16C/JJ	.	.	.
16BB-/LL	.	8d-/ 8dd-/	.
16C/	.	.	.
16BB-/	.	8c/ 8cc/J	.
16AA/JJ	.	.	.
16BB-/LL	.	8d-/ 8dd-/L	.
16C/	.	.	.
16BB-/	.	8f/) 8ff/	.
16AA-/JJ	.	.	.
16GG/LL	.	8e-'/ 8ee-'/J	.
16BB-/	.	.	.
16D-/	.	16b-/LL	.
16F/JJ	.	16a-/JJ	.
=43	=43	=43	=43
16E-\LL	.	16g/LL	.
*	*	*^	*
16F\	.	4..ryy	16e-/	.
16E-\	.	.	16f/	.
16D-\JJ	.	.	16g/JJ	.
16C/LL	.	.	16a-/LL	.
16D-/	.	.	16g/	.
16C/	.	.	16a-/	.
16BB-/JJ	.	.	16b-/JJ	.
4AA-/	.	16cc\LL	4aa-'/	.
.	.	16dd-\	.	.
.	.	16cc\	.	.
.	.	16b-\JJ	.	.
*clefG2	*clefG2	*	*	*
16a-/LL	.	4ryy	4ccc'/	.
16cc/	.	.	.	.
16b-/	.	.	.	.
16a-/JJ	.	.	.	.
*	*	*v	*v	*
=44	=44	=44	=44
*k[b-e-a-d-]	*k[b-e-a-d-]	*k[b-e-a-d-]	*k[b-e-a-d-]
16b-/LL	.	[4gg\	.
16a-/	.	.	.
16g/	.	.	.
16f/JJ	.	.	.
16e-/LL	.	16gg\LL]	.
16g/	.	16bb-\	.
16b-/	.	16ddd-\	.
16dd-/JJ	.	16fff\JJ	.
*	*	*8va	*
8cc/L	.	16eee-\LL	.
.	.	16fff\	.
(8G/ 8g/	.	16eee-\	.
.	.	16ddd-\JJ	.
8A-/ 8a-/	.	16ccc\LL	.
.	.	16ddd-\	.
8G/ 8g/J	.	16ccc\	.
.	.	16bb-\JJ	.
=45	=45	=45	=45
8A-/ 8a-/L	.	16ccc\LL	.
.	.	16ddd-\	.
8d-/) 8dd-/	.	16ccc\	.
.	.	16bb-\JJ	.
8c'/ 8cc'/	.	16aa\LL	.
.	.	16ccc\	.
8A'/ 8a'/J	.	16eee-\	.
.	.	16ggg-\JJ	.
8r	.	16fff\LL	.
.	.	16ggg-\	.
(8A/ 8a/L	.	16fff\	.
.	.	16eee-\JJ	.
8B-/ 8b-/	.	16ddd-\LL	.
.	.	16eee-\	.
8A/ 8a/J	.	16ddd-\	.
.	.	16ccc\JJ	.
=46	=46	=46	=46
8B-/ 8b-/L	.	16ddd-\LL	.
.	.	16eee-\	.
8e-/) 8ee-/	.	16ddd-\	.
.	.	16ccc\JJ	.
8d-'/ 8dd-'/	.	16bb-\LL	.
.	.	16ddd-\	.
8B-'/ 8b-'/J	.	16fff\	.
.	.	16aaa-\JJ	.
8r	.	16ggg-\LL	.
.	.	16aaa-\	.
(8B-/ 8b-/L	.	16ggg-\	.
.	.	16fff\JJ	.
8c/ 8cc/	.	16eee-\LL	.
.	.	16fff\	.
8B-/ 8b-/J	.	16eee-\	.
.	.	16ddd-\JJ	.
=47	=47	=47	=47
8c/ 8cc/L	.	16eee-\LL	.
.	.	16fff\	.
8f/) 8ff/	.	16eee-\	.
.	.	16ddd-\JJ	.
8e-'/ 8ee-'/	.	16ccc\LL	.
.	.	16eee-\	.
8c'/ 8cc'/J	.	16ggg-\	.
.	.	16bbb-\JJ	.
8r	.	16aaa-\LL	.
.	.	16bbb-\	.
*clefF4	*clefF4	*	*
8AAA-/ 8AA-/L	.	16aaa-\	.
.	.	16ggg-\JJ	.
8BBB-/ 8BB-/	.	16fff\LL	.
.	.	16ggg-\	.
8CC/ 8C/J	.	16fff\	.
.	.	16eee-\JJ	.
=48	=48	=48	=48
16D-\ 16F\LL	.	2fff\	ff
*	*	*X8va	*
16A-\	.	.	.
16D-\ 16F\	.	.	.
16A-\JJ	.	.	.
16D-\ 16F\LL	.	.	.
16A-\	.	.	.
16D-\ 16F\	.	.	.
16A-\JJ	.	.	.
*	*	*clefF4	*clefF4
16D-\ 16F\LL	.	2DD-/	.
16A-\	.	.	.
16D-\ 16F\	.	.	.
16A-\JJ	.	.	.
16D-\ 16F\LL	.	.	.
16A-\	.	.	.
16D-\ 16F\	.	.	.
16A-\JJ	.	.	.
=49	=49	=49	=49
16D\ 16F\ 16A-\LL	.	2DD/	.
16c-\	.	.	.
16D\ 16F\ 16A-\	.	.	.
16c-\JJ	.	.	.
16D\ 16F\ 16A-\LL	.	.	.
16c-\	.	.	.
16D\ 16F\ 16A-\	.	.	.
16c-\JJ	.	.	.
*	*	*clefG2	*clefG2
*	*	*8va	*
16D\ 16F\ 16A-\LL	.	2cccc-\	.
*	*	*X8va	*
16c-\	.	.	.
16D\ 16F\ 16A-\	.	.	.
16c-\JJ	.	.	.
16D\ 16F\ 16A-\LL	.	.	.
16c-\	.	.	.
16D\ 16F\ 16A-\	.	.	.
16c-\JJ	.	.	.
=50	=50	=50	=50
4EE-/ 4E-/	.	4r	.
4r	.	(2eee-\	.
4r	.	.	.
8.r	.	8.ccc\L	.
16E-\ 16c\ 16e-\	.	16aa-\Jk)	.
=51	=51	=51	=51
4.E-\ 4.B-\ 4.d-\	.	(4aa-\	.
.	.	8gg\L)	p
16r	.	16r	.
16E-\ 16A-\ 16c\	.	16ff\Jk	.
4E-\ 4A-\ (4c\	.	(4ff\	.
8E-\ 8G\ 8B-\L)	.	8ee-\L)	.
16r	.	16r	.
16E-\ 16G\ 16B-\Jk	.	16dd-\ 16gg\ 16ddd-\Jk	.
=52	=52	=52	=52
4E-\ 4G\ (4B-\	.	4dd-\ 4gg\ (4ddd-\	.
4E-\ 4A-\ 4c\)	.	[4cc\ [4aa-\ [4ccc\)	.
*MM60	*MM60	*MM60	*MM60
4r	.	48cc\] 48aa-\] (48ccc\LLL]	.
.	.	48eee-\	.
.	.	48ddd\	.
.	.	48eee-\	.
.	.	48fff\	.
.	.	48eee-\	.
.	.	48bb\	.
.	.	48ccc\	.
.	.	48bb\	.
.	.	48ccc\	.
.	.	48ddd-\	.
.	.	48ccc\JJJ)	.
4r	.	(24gg\LL	.
.	.	24aa-\	.
.	.	24bb-\	.
.	.	24aa-\	.
.	.	24gg\	.
.	.	24aa-\JJ)	.
=53	=53	=53	=53
4.E-\ 4.B-\ 4.d-\	.	20aa-\LL	.
.	.	20gg\	.
.	.	20aa-\	.
.	.	20bb-\	.
.	.	20aa-\JJ	.
.	.	16r	.
.	.	8gg\L	.
16r	.	.	.
16E-\ 16A-\ 16c\	.	16ff\Jk	.
4.E-\ 4.G\ 4.B-\	.	(20ff\LL	.
.	.	20ee-\	.
.	.	20ff\	.
.	.	20gg\	.
.	.	20ff\JJ	.
.	.	8ee-\L)	.
16r	.	16r	.
16E\ 16G\ 16B-\	.	16dd-\ 16gg\ 16ddd-\Jk	.
=54	=54	=54	=54
4E\ 4G\ (4B-\	.	4dd-\ 4gg\ (4ddd-\	.
4F\ 4A-\)	.	4cc\ 4aa-\ 4ccc\)	.
4r	.	4r	.
8.r	.	8.r	.
*MM50	*MM50	*MM50	*MM50
*clefG2	*clefG2	*	*
16d-/ 16g/ 16b-/	.	16gg\ 16bb-\ 16fff\	.
=55	=55	=55	=55
(4d-/ 4g/ 4b-/	.	4gg\ 4bb-\ (4fff\	.
4c'/) 4a-'/ 4cc'/	.	4ee-\ 4aa-\ 4eee-\)	.
4r	.	4r	.
8r	.	8r	.
*MM120	*MM120	*MM120	*MM120
*	*	*8va	*
8d/ 8f/ 8a-/ 8cc-/	.	16aaa-\LL	ff
.	.	16cccc-\JJ	.
=56	=56	=56	=56
8d/ 8f/ 8a-/ 8cc-/	.	(16aaa-\LL	.
.	.	16cccc-\)	.
(16ff\LL	.	(16fff\	.
16aa-\JJ)	.	16aaa-\JJ)	.
(16dd\LL	.	(16ddd\LL	.
16ff\)	.	16fff\)	.
(16cc-\	.	(16ccc-\	.
16dd\JJ)	.	16ddd\JJ)	.
*	*	*X8va	*
(16a-\LL	.	(16aa-\LL	.
16cc-\)	.	16ccc-\)	.
(16f\	.	(16ff\	.
16a-\JJ)	.	16aa-\JJ)	.
*clefF4	*clefF4	*	*
(16d\LL	.	(16dd\LL	.
16f\)	.	16ff\)	.
(16c-\	.	(16cc-\	.
16d\JJ)	.	16dd\JJ)	.
=57	=57	=57	=57
(16A-\LL	.	(16a-/LL	.
16c-\)	.	16cc-/)	.
(16F\	.	(16f/	.
16A-\JJ)	.	16a-/JJ)	.
16D\LL	.	16d/LL	p
16E-\	.	16e-/	.
16F\	.	16f/	.
16G\JJ	.	16g/JJ	.
16A-\LL	.	16a-\LL	.
16B-\	.	16b-\	.
16c\	.	16cc\	.
16d-\JJ	.	16dd-\JJ	.
16e-\LL	.	16ee-\LL	.
16e\	.	16ee\	.
16f\	.	16ff\	.
16e-\JJ	.	16ee-\JJ	.
=58	=58	=58	=58
4AAA-'/ 4AA-'/	.	16ff\LL	ff
.	.	16ee-\	.
.	.	16cc\	.
.	.	16a-\JJ	.
4CC'/ 4C'/	.	16ff\LL	.
.	.	16ee-\	.
.	.	16cc\	.
.	.	16a-\JJ	.
2GGG/ 2GG/	.	16ff\LL	.
.	.	16ee-\	.
.	.	16dd-\	.
.	.	16b-\JJ	.
.	.	16ff\LL	.
.	.	16ee-\	.
.	.	16dd-\	.
.	.	16b-\JJ	.
=59	=59	=59	=59
4GGG-'/ 4GG-'/	.	16bb-\LL	.
.	.	16aa-\	.
.	.	16ee-\	.
.	.	16cc\JJ	.
4AAA-'/ 4AA-'/	.	16bb-\LL	.
.	.	16aa-\	.
.	.	16ee-\	.
.	.	16cc\JJ	.
2FFF/ 2FF/	.	16bb-\LL	.
.	.	16aa-\	.
.	.	16ff\	.
.	.	16dd-\JJ	.
.	.	16eee-\LL	.
.	.	16ddd-\	.
.	.	16aa-\	.
.	.	16dd-\JJ	.
=60	=60	=60	=60
4FFF-'/ 4FF-'/	.	16eee-\LL	.
.	.	16ddd-\	.
.	.	16aa-\	.
.	.	16dd-\JJ	.
4AAA-'/ 4AA-'/	.	16eee-\LL	.
.	.	16ddd-\	.
.	.	16aa-\	.
.	.	16dd-\JJ	.
(4EEE-/ 4EE-/	.	16ddd-\LL	.
.	.	16ccc\	.
.	.	16aa-\	.
.	.	16ee-\JJ	.
8.AAA-/) 8.AA-/L	.	16ddd-\LL	.
.	.	16ccc\	.
.	.	16aa-\	.
16CC/ 16C/Jk	.	16ee-\JJ	.
=61	=61	=61	=61
4EE-'/ 4E-'/	.	16ddd-\LL	.
*	*	*^	*
.	.	4..ryy	16ccc\	.
.	.	.	16aa-\	.
.	.	.	16ee-\JJ	.
4EEE-'/ 4EE-'/	.	.	16ccc\LL	.
.	.	.	16bb-\	.
.	.	.	16gg\	.
.	.	.	16dd-\JJ	.
16r	.	4aa-'/	8cc\ 8ee-\L	.
16c\LL	.	.	.	.
16B-\	.	.	8cc\ 8ee-\	.
16A-\JJ	.	.	.	.
16G\LL	.	4ccc'/	8cc\ 8ee-\	.
16A-\	.	.	.	.
16B-\	.	.	8cc\ 8ee-\J	.
16A-\JJ	.	.	.	.
*clefG2	*clefG2	*	*	*
=62	=62	=62	=62	=62
16r	.	2gg/	8b-\ 8ee-\L	.
16g/LL	.	.	.	.
16f/	.	.	8b-\ 8ee-\	.
16e-/JJ	.	.	.	.
16d/LL	.	.	8b-\ 8ee-\	.
16e-/	.	.	.	.
16f/	.	.	8b-\ 8ee-\J	.
16e-/JJ	.	.	.	.
*clefF4	*clefF4	*	*	*
16r	.	4gg-'/	8a-\ 8ee-\L	.
16E-/LL	.	.	.	.
16D-/	.	.	8a-\ 8ee-\	.
16C/JJ	.	.	.	.
16BB/LL	.	4aa-'/	8a-\ 8ee-\	.
16C/	.	.	.	.
16D-/	.	.	8a-\ 8ee-\J	.
16C/JJ	.	.	.	.
=63	=63	=63	=63	=63
16r	.	2ff/	8a-\ 8dd-\L	.
16f\LL	.	.	.	.
16e-\	.	.	8a-\ 8dd-\	.
16d-\JJ	.	.	.	.
16c\LL	.	.	8a-\ 8dd-\	.
16d-\	.	.	.	.
16e-\	.	.	8a-\ 8dd-\J	.
16d-\JJ	.	.	.	.
16r	.	4ff-'/	8a-\ 8dd-\L	.
16DD-/LL	.	.	.	.
16EE-/	.	.	8a-\ 8dd-\	.
16FF-/JJ	.	.	.	.
16EE-/LL	.	4aa-'/	8a-\ 8dd-\	.
16DD-/	.	.	.	.
16CC/	.	.	8a-\ 8dd-\J	.
16DD-/JJ	.	.	.	.
*	*	*v	*v	*
=64	=64	=64	=64
16DD/LL	.	4a-\ 4cc\ (4ee-\	.
16EE-/	.	.	.
16FF/	.	.	.
16EE-/JJ	.	.	.
16DD-/LL	.	8.a-\ 8.aa-\L	.
16CC/	.	.	.
16BBB-/	.	.	.
16AAA-/JJ	.	16cc\ 16ccc\Jk	.
16GGG/LL	.	8ee-\ 8eee-\L)	.
16AAA-/	.	.	.
*	*	*8va	*
16BBB-/	.	8eee-'\J	.
16CC/JJ	.	.	.
16DD-/LL	.	(8.eee-\L	.
16CC/	.	.	.
16DD-/	.	.	.
16BBB/JJ	.	32ddd-\LL	.
.	.	32eee-\JJJ)	.
=65	=65	=65	=65
16CC/LL	.	(8eee-\L	.
16DD-/	.	.	.
16EE-/	.	16fff\L	.
16DD-/JJ	.	16ggg\JJ)	.
16CC/LL	.	(8ggg\L	.
16BBB/	.	.	.
16CC/	.	8aaa-\J)	.
*	*	*X8va	*
16AAA-/JJ	.	.	.
16GGG/LL	.	8r	.
16AAA-/	.	.	.
16BBB-/	.	8ee-'\	.
16CC/JJ	.	.	.
16DD-/LL	.	(8.ee-\L	.
16CC/	.	.	.
16DD-/	.	.	.
16BBB/JJ	.	32dd\LL	.
.	.	32ee-\JJJ)	.
=66	=66	=66	=66
16CC/LL	.	(8ee-\L	.
16DD-/	.	.	.
16EE-/	.	16ff\L	.
16DD-/JJ	.	(16gg\JJ)	.
16CC/LL	.	8gg\L	.
16BBB/	.	.	.
16CC/	.	8aa-\J)	.
16AAA-/JJ	.	.	.
16GGG/LL	.	8r	.
16AAA-/	.	.	.
16BBB-/	.	8e-'/	.
16CC/JJ	.	.	.
16DD-/LL	.	(8e-/L	.
16EE-/	.	.	.
16FF/	.	16f/L	.
16GG/JJ	.	16g/JJ)	.
=67	=67	=67	=67
16AA-/LL	.	16a-\LL	.
16BB-/	.	16b-\	.
16C/	.	16cc\	.
16BB/JJ	.	16b\JJ	.
16C\LL	.	16cc\LL	.
16D-\	.	16dd-\	.
16E--\	.	16ee--\	.
16D-\JJ	.	16dd-\JJ	.
16E--\LL	.	16ee--\LL	.
16E-\	.	16ee-\	.
16F-\	.	16ff-\	.
16E-\JJ	.	16ee-\JJ	.
16F-\LL	.	16ff-\LL	.
16F\	.	16ff\	.
16G-\	.	16gg-\	.
16G\JJ	.	16gg\JJ	.
=68	=68	=68	=68
16A-\LL	.	16aa-\LL	.
16B-\	.	16bb-\	.
16c\	.	16ccc\	.
16B\JJ	.	16bb\JJ	.
*	*	*8va	*
16c\LL	.	16ccc\LL	.
16d-\	.	16ddd-\	.
16e--\	.	16eee--\	.
16d-\JJ	.	16ddd-\JJ	.
16e--\LL	.	16eee--\LL	.
16e-\	.	16eee-\	.
16f-\	.	16fff-\	.
16e-\JJ	.	16eee-\JJ	.
*clefG2	*clefG2	*	*
16f-/LL	.	16fff-\LL	.
16f/	.	16fff\	.
16g-/	.	16ggg-\	.
16g/JJ	.	16ggg\JJ	.
*	*	*X8va	*
=69	=69	=69	=69
*>B1	*>B1	*>B1	*>B1
*	*	*8va	*
4a-'/	.	4aa-\ 4aaa-\	ff
*	*	*X8va	*
*clefF4	*clefF4	*	*
4AAA-'/ 4AA-'/	.	4r	.
4r	.	4A-'/ 4a-'/	.
*	*	*clefF4	*clefF4
8r	.	8r	.
(24GGG/LL	.	(24GG/LL	.
24AAA/	.	24AA/	.
24BBB/JJ)	.	24BB/JJ)	.
=70:|!	=70:|!	=70:|!	=70:|!
*>B2	*>B2	*>B2	*>B2
*clefG2	*clefG2	*clefG2	*clefG2
*	*	*8va	*
4a-/	.	4aa-\ 4aaa-\	ff
*	*	*X8va	*
*clefF4	*clefF4	*	*
4AAA-'/ 4AA-'/	.	2r	.
2r	.	.	.
.	.	4A-'/ 4a-'/	.
=71	=71	=71	=71
4r	.	4r	.
4GGG/ 4GG/	p	4G/ 4g/	.
2r	.	2r	.
=72	=72	=72	=72
*>C	*>C	*>C	*>C
*k[b-e-]	*k[b-e-]	*k[b-e-]	*k[b-e-]
4r	.	8r	.
.	.	(24a/LL	.
.	.	24b/	.
.	.	24cc#/JJ	f
4FFF#'/ 4FF#'/	.	2r	.
2r	.	.	.
.	.	4d'/ 4a'/) 4dd'/	.
=73	=73	=73	=73
4r	.	4r	.
8r	.	8r	.
(24DD/LL	.	(24d/LL	p
24EE/	.	24e/	.
24FF#/JJ)	.	24f#/JJ	.
4GGG'/ 4GG'/	.	4G'/ 4g'/)	.
4BBB-'/ 4BB-'/	.	4B-'/ 4b-'/	.
=74	=74	=74	=74
*^	*	*	*
2F#/	2FFF#\ 2FF#\	.	2f#/	.
4F'/	4FFF'\ 4FF'\	.	4f'/	.
4A-'/	4AAA-'\ 4AA-'\	.	4a-'/	.
=75	=75	=75	=75	=75
2E/	2EEE\ 2EE\	.	2e/	.
4E-'/	4EEE-'\ 4EE-'\	.	4e-'/	.
4G'/	4GGG'\ 4GG'\	.	4g'/	.
=76	=76	=76	=76	=76
4D/	4DDD\ (4DD\	.	(4d/	.
*v	*v	*	*	*
8.GGG/ 8.GG/L)	.	8.G/ 8.g/L)	.
16BBB-/ 16BB-/Jk	.	16B-/ 16b-/Jk	.
4DD'/ 4D'/	.	4d'/ 4dd'/	.
4CC'/ 4C'/	.	4F#'/ 4A'/ 4d'/	.
=77	=77	=77	=77
4BBB/ 4BB/	.	(2d/	.
4GGG/ 4GG/	.	.	.
4G'\	.	2e-/	.
4c'\	.	.	.
=78	=78	=78	=78
(4.F#\	.	2A/)	.
*^	*	*	*
8ryy	8e-\)	.	.	.
8d/L	4r	.	2f#/	.
8c/	.	.	.	.
8B-/	4D\	.	.	.
8A/J	.	.	.	.
=79	=79	=79	=79	=79
4B/	(2G\	.	16g/LL	.
.	.	.	16d/	.
.	.	.	16e-/	.
.	.	.	16f/JJ	.
4r	.	.	16g/LL	.
.	.	.	16f/	.
.	.	.	16e-/	.
.	.	.	16d/JJ	.
2ryy	2A-\	.	4c'/	.
.	.	.	4e-'/	.
*v	*v	*	*	*
=80	=80	=80	=80
2D\)	.	(4.B/	.
.	.	8a-/)	.
2B\	.	8g/L	.
.	.	8f/	.
.	.	8e-/	.
.	.	8d/J	.
=81	=81	=81	=81
*	*	*^	*
4c\	.	(2cc/	16e-\LL	.
.	.	.	16f\	.
.	.	.	16e-\	.
.	.	.	16d-\JJ	.
16r	.	.	16c\LL	.
16B-\LL	.	.	16g\	.
16A-\	.	.	16f\	.
16G\JJ	.	.	16e-\JJ	.
4A-'\	.	2dd-/	4f'\	.
4F'\	.	.	4a-'\	.
=82	=82	=82	=82	=82
4B-\	.	2g/	4.e\	.
4G\	.	.	.	.
.	.	.	8dd-\	.
4c\	.	(2ee/)	8cc\L	.
.	.	.	8b-\	.
4C\	.	.	8a-\	.
.	.	.	8g\J	.
=83	=83	=83	=83	=83
2F\	.	8ff/)	16a-\LL	.
.	.	.	16b-\	.
*	*	*v	*v	*
.	.	16a-\	.
.	.	16g\JJ	.
.	.	16f\LL	.
.	.	16a-\	.
.	.	16dd-\	.
.	.	16b\JJ	.
2E\	.	16cc\LL	.
.	.	16b\	.
.	.	16cc\	.
.	.	16b-\JJ	.
.	.	16cc\LL	.
.	.	16a-\	.
.	.	16cc\	.
.	.	16g\JJ	.
=84	=84	=84	=84
*^	*	*	*
4F/	2FF\	.	16A-/ 16a-/LL	.
.	.	.	16B-/	.
.	.	.	16A-/	.
.	.	.	16G/JJ	.
4ryy	.	.	16F/LL	.
.	.	.	16A-/	.
.	.	.	16d-/	.
.	.	.	16B/JJ	.
*v	*v	*	*	*
2EE/	.	16c/LL	.
.	.	16B/	.
.	.	16c/	.
.	.	16B-/JJ	.
.	.	16c/LL	.
.	.	16A-/	.
.	.	16c/	.
.	.	16G/JJ	.
=85	=85	=85	=85
8FF/L	.	16c/LL	.
.	.	16A-/	.
8EE-/	.	16c/	.
.	.	16G/JJ	.
8DD/	.	16B/LL	.
.	.	16F/	.
8CC/J	.	16c/	.
.	.	16E-/JJ	.
8BBB/L	.	16d/LL	.
.	.	16G/	.
8BBB-/	.	16e/	.
.	.	16c/JJ	.
8AAA/	.	16f/LL	.
.	.	16c/	.
8AAA-/J	.	16f#/ 16cc/	.
.	.	16e-/JJ	.
=86	=86	=86	=86
8GGG/L	.	16g/ 16cc/LL	.
.	.	16e-/	.
[8FFF#/	.	16a/ 16cc/ 16ee-/	.
.	.	16e-/JJ	.
8FFF#/]	.	16a/ 16cc/ 16ee-/LL	.
.	.	16e-/	.
[8FFF#/ [8FF#/J	.	16a/ 16cc/ 16ee-/	.
.	.	16e-/JJ	.
8FFF#/] 8FF#/]	.	16a/ 16cc/ 16ee-/LL	.
.	.	16e-/	.
4FFF#/ 4FF#/	.	16a/ 16cc/ 16ee-/	.
.	.	16e-/JJ	.
.	.	16a/ 16cc/ 16ee-/LL	.
.	.	16e-/	.
8FFF#/ 8FF#/	.	16e-/ 16a/ 16cc/	.
.	.	16c/JJ	.
=87	=87	=87	=87
16r	.	4B'/ 4d'/ 4g'/	f
16GGG/LL	.	.	.
16AAA/	.	.	.
16BBB/JJ	.	.	.
16r	.	4B'/ 4d'/ 4g'/ 4b'/	.
16GG/LL	.	.	.
16AA/	.	.	.
16BB/JJ	.	.	.
16r	.	2A/ 2c/ 2e-/ 2f#/	.
16GGG/LL	.	.	.
16CC/	.	.	.
16EE-/JJ	.	.	.
16FF#/LL	.	.	.
16AA/	.	.	.
16C/	.	.	.
16E-/JJ	.	.	.
=88	=88	=88	=88
*k[b-e-a-]	*k[b-e-a-]	*k[b-e-a-]	*k[b-e-a-]
*	*	*^	*
16r	.	4f#'/ 4a'/ 4cc'/	4e-\	.
16GGG/LL	.	.	.	.
16CC/	.	.	.	.
16EE-/JJ	.	.	.	.
16r	.	4f#'/ 4a'/ 4ee-'/	4e-\	.
16GG/LL	.	.	.	.
16C/	.	.	.	.
16E-/JJ	.	.	.	.
16r	.	2b/	2d\ 2f\ 2a-\	.
16GGG/LL	.	.	.	.
16DD/	.	.	.	.
16FF/JJ	.	.	.	.
16GG/LL	.	.	.	.
16BB/	.	.	.	.
16D/	.	.	.	.
16F/JJ	.	.	.	.
=89	=89	=89	=89	=89
16r	.	4ff'/	4a-\ 4b\ 4dd\	.
16GGG/LL	.	.	.	.
16DD/	.	.	.	.
16FF/JJ	.	.	.	.
16r	.	4ff'/ 4aa-'/	4b\ 4dd\	.
16GG/LL	.	.	.	.
16D/	.	.	.	.
16F/JJ	.	.	.	.
16r	.	2ee/	2g\ 2b-\ 2dd-\	.
16GGG/LL	.	.	.	.
16GG/	.	.	.	.
16BB-/JJ	.	.	.	.
16D-\LL	.	.	.	.
16E\	.	.	.	.
16G\	.	.	.	.
16B-\JJ	.	.	.	.
=90	=90	=90	=90	=90
16r	.	4ee'/ 4gg'/	4b-\ 4dd-\	.
16GGG/LL	.	.	.	.
16GG/	.	.	.	.
16BB-/JJ	.	.	.	.
16r	.	4ee'/ 4bb-'/	4b-\ 4dd-\	.
16GG\LL	.	.	.	.
16G\	.	.	.	.
16B-\JJ	.	.	.	.
16r	.	2ff#/	2a\ 2cc\ 2ee-\	.
16GGG/LL	.	.	.	.
16AA/	.	.	.	.
16C/JJ	.	.	.	.
16E-\LL	.	.	.	.
16F#\	.	.	.	.
16A\	.	.	.	.
16c\JJ	.	.	.	.
=91	=91	=91	=91	=91
16r	.	4ff#'/ 4aa'/ 4ccc'/	4ee-\	.
16GGG/LL	.	.	.	.
16AA/	.	.	.	.
16C/JJ	.	.	.	.
16r	.	4ff#'/ 4aa'/ 4eee-'/	4ee-\	.
16F#\LL	.	.	.	.
16A\	.	.	.	.
16c\JJ	.	.	.	.
16r	.	4bb/	4.dd\ 4.ff\ 4.aa-\	.
16GGG/LL	.	.	.	.
16BB/	.	.	.	.
16D/JJ	.	.	.	.
16F\LL	.	4r	.	.
16A-\	.	.	.	.
*	*	*	*8va	*
16F\	.	.	8aa-\ 8aaa-\	.
16A-\JJ	.	.	.	.
*	*	*v	*v	*
=92	=92	=92	=92
16G\LL	.	16ggg\LL	.
16A-\	.	16aaa-\	.
16G\	.	16ggg\	.
16F\JJ	.	16fff\JJ	.
16E-\LL	.	16eee-\LL	.
16F\	.	16fff\	.
16E-\	.	16eee-\	.
16D\JJ	.	16ddd\JJ	.
16E-\LL	.	16eee-\LL	.
16F\	.	16fff\	.
16E-\	.	16eee-\	.
16D\JJ	.	16ddd\JJ	.
*	*	*X8va	*
16C/LL	.	16ccc\LL	.
16GG/	.	16gg\	.
16AA/	.	16aa\	.
16BB/JJ	.	16bb\JJ	.
=93	=93	=93	=93
4CC'/ 4C'/	.	4cc'\ 4ccc'\	ff
4EE-'/ 4E-'/	.	4ee-'\ 4eee-'\	.
4.BBB/ 4.BB/	.	4.b\ 4.bb\	.
8AA-/ 8A-/	.	8aa-\ 8aaa-\	.
=94	=94	=94	=94
8GG/ 8G/L	.	8gg\ 8ggg\L	.
8FF/ 8F/	.	8ff\ 8fff\	.
8EE-/ 8E-/	.	8ee-\ 8eee-\	.
8DD/ 8D/J	.	8dd\ 8ddd\J	.
16EE-/LL	.	16ee-\ 16eee-\LL	.
16FF/	.	16fff\	.
16EE-/	.	16eee-\	.
16DD/JJ	.	16ddd\JJ	.
8r	.	8cc\ 8ccc\	.
8CC/ 8C/	.	8ff\ 8gg\ 8aaa-\	p
=95	=95	=95	=95
8G\ 8B\L	.	8ff\ 8gg\ 8ggg\L	.
*	*	*^	*
8G\ 8B\	.	4.ryy	8ff\ 8gg\ 8fff\	.
8G\ 8c\	.	.	8ff\ 8gg\ 8eee-\	.
8G\ 8B\J	.	.	8ff\ 8gg\ 8ddd\J	.
8r	.	16eee-/LL	8r	.
.	.	16fff/	.	.
[8C\ [8c\L	.	16eee-/	[8ee-\ [8gg\L	.
.	.	16ddd/JJ	.	.
8C\] 8c\J]	.	8ccc/	8ee-\] 8gg\J]	.
8r	.	8aa-/	8f\ 8g\	.
=96	=96	=96	=96	=96
8GGG/ 8GG/L	.	8gg/L	8f\ 8g\L	.
8GGG/ 8GG/	.	(8ff'/	8f\ 8g\	.
8GGG/ 8AA/	.	8ee-'/	8f\ 8g\	.
8GGG/ 8BB/J	.	8dd'/J)	8f\ 8g\J	.
8r	.	8r	[8e-\ [8g\	.
[8CC/ [8C/	.	16ee-/LL	8e-\] 8g\]	.
.	.	16ff/	.	.
8CC/] 8C/]	.	16ee-/	8r	.
.	.	16dd/JJ	.	.
16r	.	8cc/	8aa-\ 8aaa-\	.
16BBB/ 16BB/	.	.	.	.
*	*	*v	*v	*
=97	=97	=97	=97
16r	.	16gg\ 16ggg\LL	.
16BBB/ 16BB/LL	.	16r	.
16r	.	16ff\ 16fff\JJ	.
16BBB/ 16BB/JJ	.	16r	.
16r	.	16ee-\ 16eee-\LL	.
16BBB/ 16BB/LL	.	16r	.
16r	.	16dd\ 16ddd\JJ	.
16BBB/ 16BB/JJ	.	16r	.
16r	.	16ee-\ 16eee-\LL	.
16CC/ 16C/LL	.	16r	.
16r	.	16dd\ 16ddd\JJ	.
16DD/ 16D/JJ	.	16r	.
16r	.	16cc\ 16ccc\LL	.
16EE-/ 16E-/LL	.	16r	.
16r	.	16b\ 16bb\JJ	.
16DD/ 16D/JJ	.	16r	.
=98	=98	=98	=98
16r	.	16cc\ 16ccc\LL	.
16EE-/ 16E-/LL	.	16r	.
16r	.	16b-\ 16bb-\JJ	.
16EE/ 16E/JJ	.	16r	.
16r	.	16a-\ 16aa-\LL	.
16FF/ 16F/LL	.	16r	.
16EE/ 16E/JJ	.	16g\ 16gg\JJ	.
16r	.	16r	.
16r	.	16a-\ 16aa-\LL	.
16r	.	16r	.
16r	.	16g\ 16gg\JJ	.
16AA-\ 16A-\LL	.	16r	.
16r	.	16f\ 16ff\LL	.
16F\ 16A-\JJ	.	16r	.
16FF/ 16F/LL	.	16e-\ 16ee-\JJ	.
16GG/ 16G/JJ	.	16r	.
=99	=99	=99	=99
16r	.	16d-\ 16dd-\LL	.
16F\ 16A-\LL	.	16r	.
16r	.	16a-\ 16aa-\JJ	.
16F\ 16A-\ 16d-\JJ	.	16r	.
16r	.	16dd-\ 16ddd-\LL	.
16F\ 16A-\ 16d-\LL	.	16r	.
16r	.	16ff\ 16fff\JJ	.
16F\ 16A-\ 16d-\JJ	.	16r	.
16r	.	16aa-\ 16aaa-\LL	.
16F\ 16A-\ 16d-\LL	.	16r	.
16r	.	16a-\ 16aa-\JJ	.
16F\ 16A-\JJ	.	16r	.
16r	.	16f\ 16ff\LL	.
16F\ 16A-\ 16d-\LL	.	16r	.
16r	.	16d-\ 16dd-\JJ	.
16F\ 16A-\JJ	.	16r	.
=100	=100	=100	=100
16r	.	16d-/ 16dd-/LL	.
16F\ 16A-\LL	.	16r	.
16r	.	16c/ 16cc/JJ	.
16E\ 16G\JJ	.	16r	.
16r	.	16c/ 16cc/LL	.
16E\ 16G\LL	.	16r	.
16r	.	16c/ 16cc/JJ	.
16E\ 16G\JJ	.	16r	.
8E\ 8G\	.	8c/ 8cc/	.
4EE/	.	4c/ 4g/ 4dd-/	.
(24CC/LL	.	8c/ 8g/ 8b-/	.
24DD/	.	.	.
24EE/JJ)	.	.	.
=101	=101	=101	=101
4FFF'/ 4FF'/	.	16a-/LL	f
.	.	16cc/	.
.	.	16b-/	.
.	.	16a-/JJ	.
4AAA-'/ 4AA-'/	.	16g/LL	.
.	.	16f/	.
.	.	16e/	.
.	.	16f/JJ	.
[4EEE/ [4EE/	.	16g/LL	.
.	.	16a-/	.
.	.	16b-/	.
.	.	16g/JJ	.
16EEE/] 16EE/LL]	.	(16d-/LL	.
16GG/	.	16e/	.
16BB-/	.	16g/	.
16D-/JJ	.	[16b-/JJ	.
=102	=102	=102	=102
16C/LL	.	8b-/L]	.
16D-/	.	.	.
16C/	.	8E/ 8e/	.
16BB-/JJ	.	.	.
16AA-/LL	.	8F/ 8f/	.
16BB-/	.	.	.
16AA-/	.	8E/ 8e/J	.
16GG/JJ	.	.	.
16AA-/LL	.	8F/ 8f/L	.
16BB-/	.	.	.
16AA-/	.	8B-/ 8b-/)	.
16GG/JJ	.	.	.
16FF/LL	.	8A-'/ 8a-'/	.
16AA-/	.	.	.
16C/	.	8F/ 8f/J	.
16E-/JJ	.	.	.
=103	=103	=103	=103
16D-/LL	.	8r	.
16E-/	.	.	.
16D-/	.	(8F/ 8f/L	.
16C/JJ	.	.	.
16BB-/LL	.	8G/) 8g/	.
16C/	.	.	.
16BB-/	.	[8G/ [8g/J	.
16AA/JJ	.	.	.
16BB-/LL	.	8G/] 8g/L]	.
16C/	.	.	.
16BB-/	.	8c/ 8cc/	.
16AA-/JJ	.	.	.
16GG/LL	.	8B-'/ 8b-'/	.
16BB-/	.	.	.
16D-/	.	8G'/ 8g'/J	.
16F/JJ	.	.	.
=104	=104	=104	=104
16E-\LL	.	8r	.
16F\	.	.	.
16E-\	.	(8G/ 8g/L	.
16D-\JJ	.	.	.
16C/LL	.	8A-/) 8a-/	.
16D-/	.	.	.
16C/	.	[8A-/ [8a-/J	.
16BB-/JJ	.	.	.
16C/LL	.	8A-/] 8a-/L]	.
16D-/	.	.	.
16C/	.	(8d-/ 8dd-/	.
16BB-/JJ	.	.	.
16AA\LL	.	8c/) 8cc/J	.
16C\	.	.	.
16E-\	.	16c/ 16cc/LL	.
16G-\JJ	.	16b-/JJ	.
=105	=105	=105	=105
16F\LL	.	8a/L	.
16G-\	.	.	.
16F\	.	16b-/L	.
16E-\JJ	.	16cc/JJ	.
16D-\LL	.	16f/LL	.
16E-\	.	16g-/	.
16D-\	.	16f/	.
16C\JJ	.	16e-/JJ	.
*	*	*^	*
16D-\LL	.	4b-'/	16f\LL	f
16E-\	.	.	16g-\	.
16D-\	.	.	16f\	.
16C\JJ	.	.	16e-\JJ	.
16BB-\LL	.	4dd-'/	16d-\LL	.
16D-\	.	.	16f\	.
16BB-\	.	.	16d-\	.
16D-\JJ	.	.	16f\JJ	.
=106	=106	=106	=106	=106
16C/LL	.	4.a/	16e-\LL	.
16D-/	.	.	16f\	.
16E-/	.	.	16g-\	.
16D-/JJ	.	.	16f\JJ	.
16C/LL	.	.	8e-\L	.
16D-/	.	.	.	.
16C/	.	8gg-/	16ee-\L	.
16BB-/JJ	.	.	16dd-\JJ	.
8AA/	.	16ff/LL	4r	.
.	.	16gg-/	.	.
8FF\ (8F\L	.	16ff/	.	.
.	.	16ee-/JJ	.	.
8BB-\ 8B-\	.	16dd-/LL	4cc\	.
.	.	16ee-/	.	.
8AA\ 8A\J)	.	16dd-/	.	.
.	.	16cc/JJ	.	.
*	*	*v	*v	*
=107	=107	=107	=107
8BB-\ (8B-\L	.	16dd-\LL	.
.	.	16ee-\	.
8E-\ 8e-\)	.	16dd-\	.
.	.	16cc\JJ	.
8D-'\ 8d-'\	.	16b-\LL	.
.	.	16dd-\	.
8BB-'\ 8B-'\J	.	16ff\	.
.	.	16aa-\JJ	.
8r	.	16gg-\LL	.
.	.	16aa-\	.
8BB-\ (8B-\L	.	16gg-\	.
.	.	16ff\JJ	.
8C\ 8c\	.	16ee-\LL	.
.	.	16ff\	.
8BB-\ 8B-\J)	.	16ee-\	.
.	.	16dd-\JJ	.
=108	=108	=108	=108
8C\ (8c\L	.	16ee-\LL	.
.	.	16ff\	.
8F\ 8f\)	.	16ee-\	.
.	.	16dd-\JJ	.
8E-'\ 8e-'\	.	16cc\LL	.
.	.	16ee-\	.
8C'\ 8c'\J	.	16gg-\	.
.	.	16bb-\JJ	.
8r	.	16aa-\LL	.
.	.	16bb-\	.
8C\ (8c\L	.	16aa-\	.
.	.	16gg-\JJ	.
8D-\ 8d-\	.	16ff\LL	.
.	.	16gg-\	.
8C\ 8c\J)	.	16ff\	.
.	.	16ee-\JJ	.
*clefG2	*clefG2	*	*
=109	=109	=109	=109
*	*	*^	*
*	*	*8va	*8va	*
16f/LL	.	4ddd-'/	16aa-\LL	f
16g-/	.	.	16bb-\	.
16f/	.	.	16aa-\	.
16e-/JJ	.	.	16gg-\JJ	.
16d-/LL	.	4fff'/	16ff\LL	.
16e-/	.	.	16gg-\	.
16f/	.	.	16aa-\	.
16d-/JJ	.	.	16ff\JJ	.
16a-/LL	.	[4ccc/	8ee-\	.
16b-/	.	.	.	.
16a-/	.	.	8r	.
16g/JJ	.	.	.	.
16a-\LL	.	4ryy	16ccc\LL]	.
16cc\	.	.	16eee-\	.
16ee-\	.	.	16ggg-\	.
16gg-\JJ	.	.	16bbb-\JJ	.
*	*	*v	*v	*
=110	=110	=110	=110
16ff\LL	.	16aaa-\LL	.
16gg-\	.	16bbb-\	.
16ff\	.	16aaa-\	.
16ee-\JJ	.	16ggg-\JJ	.
16dd-\LL	.	16fff\LL	.
16ee-\	.	16ggg-\	.
16dd-\	.	16fff\	.
16cc\JJ	.	16eee-\JJ	.
16dd-\LL	.	16fff\LL	.
16ee-\	.	16ggg-\	.
16dd-\	.	16fff\	.
16cc-\JJ	.	16eee-\JJ	.
16b-\LL	.	16ddd\LL	.
16dd\	.	16fff\	.
16ff\	.	16aaa-\	.
16aa-\JJ	.	16cccc-\JJ	.
=111	=111	=111	=111
16gg-\LL	.	16bbb-\LL	.
16aa-\	.	16cccc-\	.
16gg-\	.	16bbb-\	.
16ff\JJ	.	16aaa-\JJ	.
16ee-\LL	.	16ggg-\LL	.
16ff\	.	16aaa-\	.
16ee-\	.	16ggg-\	.
16dd\JJ	.	16fff\JJ	.
16ee-\LL	.	16ggg-\LL	.
16ff\	.	16aaa-\	.
16ee-\	.	16ggg-\	.
16dd-\JJ	.	16fff\JJ	.
16cc\LL	.	16eee\LL	.
16ee\	.	16ggg\	.
16gg\	.	16bbb-\	.
16ff\JJ	.	16ddd-\JJ	.
=112	=112	=112	=112
16ee\LL	.	16ccc\LL	.
16ff\	.	16ddd-\	.
16ee\	.	16ccc\	.
16gg\JJ	.	16bb-\JJ	.
16ff\LL	.	16aa-/LL	.
16gg\	.	16bb-/	.
16ff\	.	16aa-/	.
16ee\JJ	.	16gg/JJ	.
16ff\LL	.	16aa-/LL	.
16gg\	.	16bb-/	.
16ff\	.	16aa-/	.
16ee-\JJ	.	16gg/JJ	.
16dd\LL	.	16ff#/LL	.
16ff#\	.	16aa/	.
16aa\	.	16ccc/	.
16ccc\JJ	.	16eee-/JJ	.
=113	=113	=113	=113
16bb-\LL	.	16ddd\LL	.
16ccc\	.	16eee-\	.
16bb-\	.	16ddd\	.
16aa\JJ	.	16ccc\JJ	.
16gg\LL	.	16bb-\LL	.
16aa\	.	16ccc\	.
16gg\	.	16bb-\	.
16ff#\JJ	.	16aa\JJ	.
16gg\LL	.	16bb\LL	.
16aa\	.	16ccc\	.
16gg\	.	16bb\	.
16ff#\JJ	.	16aa\JJ	.
16gg\LL	.	16bb\LL	.
16bb\	.	16ddd\	.
16ddd\	.	16fff\	.
16fff\JJ	.	16aaa-\JJ	.
=114	=114	=114	=114
16eee-\LL	.	16ggg\LL	.
16fff\	.	16aaa-\	.
16eee-\	.	16ggg\	.
16ddd\JJ	.	16fff\JJ	.
16ccc\LL	.	16eee-\LL	.
16ddd\	.	16fff\	.
16ccc\	.	16eee-\	.
16bb\JJ	.	16ddd\JJ	.
16ccc\LL	.	16eee-\LL	.
16ddd\	.	16fff\	.
16ccc\	.	16eee-\	.
16bb\JJ	.	16ddd\JJ	.
8ccc\	.	16eee-\LL	.
.	.	16ggg\	.
*clefF4	*clefF4	*	*
16GG/LL	.	16aaa\	.
16FF/JJ	.	16bbb\JJ	.
=115	=115	=115	=115
16EE-/ 16GG/LL	.	2cccc\	.
*	*	*X8va	*
16C/	.	.	.
16EE-/ 16GG/	.	.	.
16C/JJ	.	.	.
16EE-/ 16GG/LL	.	.	.
16C/	.	.	.
16EE-/ 16GG/	.	.	.
16C/JJ	.	.	.
*	*	*clefF4	*clefF4
16EE/ 16GG/ 16BB-/LL	.	2CC/	.
16C/	.	.	.
16EE/ 16GG/ 16BB-/	.	.	.
16C/JJ	.	.	.
16EE/ 16GG/ 16BB-/LL	.	.	.
16C/	.	.	.
16EE/ 16GG/ 16BB-/	.	.	.
16C/JJ	.	.	.
=116	=116	=116	=116
16FF/ 16AA-/LL	.	2FFF/	.
16C/	.	.	.
16FF/ 16AA-/	.	.	.
16C/JJ	.	.	.
16FF/ 16AA-/LL	.	.	.
16C/	.	.	.
16FF/ 16AA-/	.	.	.
16C/JJ	.	.	.
*	*	*clefG2	*clefG2
16FF/ 16AA-/ 16C/LL	.	2ccc\	.
16E-/	.	.	.
16FF/ 16AA-/ 16C/	.	.	.
16E-/JJ	.	.	.
16FF/ 16AA-/ 16C/LL	.	.	.
16E-/	.	.	.
16FF/ 16AA-/ 16C/	.	.	.
16E-/JJ	.	.	.
=117	=117	=117	=117
4GGG/ 4GG/	.	4r	.
4r	.	(2ggg\	.
4r	.	.	.
8.r	.	8.eee\L	.
16G\ 16e\ 16g\	.	16ccc\Jk)	p
=118	=118	=118	=118
4.G\ 4.d\ 4.f\	.	(4ccc\	.
.	.	8bb\L)	.
16r	.	16r	.
16G\ 16c\ 16e\	.	16aa\Jk	.
4G\ 4c\ (4e\	.	(4aa\	.
8G\ 8B\ 8d\L)	.	8gg\L)	.
16r	.	16r	.
16G\ 16B\ 16d\Jk	.	16ff\ 16ddd\ 16fff\Jk	.
=119	=119	=119	=119
4G\ 4B\ (4d\	.	4ff\ 4ddd\ (4fff\	.
4G\ 4c\ 4e\)	.	[4ee\ [4ccc\ [4eee\)	.
*MM50	*MM50	*MM50	*MM50
2r	.	48ee\] 48ccc\] (48eee\LLL]	.
.	.	48ggg\	.
.	.	48fff#\	.
.	.	48ggg\	.
.	.	48aaa\	.
.	.	48ggg\	.
.	.	48ddd#\	.
.	.	48eee\	.
.	.	48fff\	.
.	.	48eee\	.
.	.	48bb\	.
.	.	48ccc\JJJ)	.
.	.	(36ddd\LLL	.
.	.	36ccc\	.
.	.	36ff#\	.
.	.	36gg\	.
.	.	36gg#\	.
.	.	36aa\	.
.	.	36gg\	.
.	.	36ee\	.
.	.	36cc\JJJ)	.
=120	=120	=120	=120
*	*	*^	*
4.GG\ 4.D\ 4.F\	.	(20cc/LL	4.B\ 4.f\	.
.	.	20b/	.	.
.	.	20cc/	.	.
.	.	20dd/	.	.
.	.	20cc/JJ)	.	.
.	.	8b/L	.	.
16r	.	16r	16r	.
16GG\ 16C\ 16F\	.	16a/Jk	16c\ 16f\	.
4.GG\ 4.BB\ 4.F\	.	(20a/LL	4.d\ 4.f\	.
.	.	20g/	.	.
.	.	20a/	.	.
.	.	20b/	.	.
.	.	20a/JJ	.	.
.	.	8g/L)	.	.
16r	.	16r	8r	.
16G\ 16d\	.	16b/ 16ff/Jk	.	.
*	*	*v	*v	*
=121	=121	=121	=121
(4G#\ 4d\	.	4b\ (4ff\	.
4A\) 4c\	.	4cc\ 4ee\)	.
4r	.	4r	.
8.r	.	8.r	.
*MM50	*MM50	*MM50	*MM50
16F\ 16G\ 16B\	.	16g\ 16dd\ 16aa\	.
=122	=122	=122	=122
(4F\ 4G\ 4B\	.	4g\ 4dd\ (4aa\	.
4E\) 4G\ 4c\	.	4g\ 4gg\)	.
4r	.	4r	.
*MM120	*MM120	*MM120	*MM120
8.r	.	8.r	.
*clefG2	*clefG2	*	*
*	*	*^	*
16f/ 16b/	.	16aa-/	16dd\	.
=123	=123	=123	=123	=123
(4f/ 4b/	.	(4aa-/	4dd\	.
2e/) 2b-/	.	2gg/	2dd-\	.
[4d-/ [4g/ [4b-/	.	[4bb-/)	[4ff\ [4gg\	.
=124	=124	=124	=124	=124
4d-/] 4g/] 4b-/]	.	4bb-/]	4ff\] 4gg\]	.
[2d-/ [2g/ 2b-/	.	[4bb-/	[2ee\ [2gg\	.
.	.	8bb-/L]	.	.
.	.	8aa/	.	.
8d-/] 8g/] 8b-/L	.	8bb-/	8ee\] 8gg\L]	.
8d-/ 8f/ 8a-/J	.	8bb/J	8ff\ 8aa-\J	.
*clefF4	*clefF4	*	*	*
*	*	*v	*v	*
=125	=125	=125	=125
2.C\ (2.c\	.	16r	.
.	.	16cc\LL	p
.	.	16ff\	.
.	.	16aa-\JJ	.
.	.	4ccc\	.
.	.	16r	.
.	.	16cc\LL	.
.	.	16ff\	.
.	.	16aa-\JJ	.
8.AA-\ 8.A-\L	.	4ccc\	.
16FF\ 16F\Jk)	.	.	.
=126	=126	=126	=126
(4FF/ 4F/	.	16r	.
.	.	16cc\LL	.
.	.	16gg\	.
.	.	16bb-\JJ	.
8EE/) 8E/L	.	4ccc\	.
16r	.	.	.
16DD-/ 16D-/Jk	.	.	.
(4DD-/ 4D-/	.	16r	.
.	.	16cc\LL	.
.	.	16ee\	.
.	.	16gg\JJ	.
8CC/) 8C/L	.	4ccc\	.
16r	.	.	.
16BB-/ 16B-/Jk	.	.	.
=127	=127	=127	=127
*MM80	*MM80	*MM80	*MM80
4BB-\ (4B-\	.	16r	.
.	.	16cc\LL	.
.	.	16ff\	.
.	.	16aa-\JJ	.
4AA-\ 4A-\)	.	16ccc\LL	.
.	.	16eee\	.
.	.	16fff\	.
.	.	16ccc\JJ	.
2r	.	(24eee-\LL	.
.	.	24ddd-\	.
.	.	24bb-\	.
.	.	24ddd-\	.
.	.	24ccc\	.
.	.	24aa-\JJ)	.
.	.	(24ccc\LL	.
.	.	24bb-\	.
.	.	24gg\	.
.	.	24bb-\	.
.	.	24aa-\	.
.	.	24ff\JJ)	.
=128	=128	=128	=128
*	*	*^	*
4.C\ 4.G\ 4.c\	.	20ff/LL	4.b-\	.
.	.	20ee/	.	.
.	.	20ff/	.	.
.	.	20gg/	.	.
.	.	20ff/JJ	.	.
.	.	8ee/L	.	.
*	*	*v	*v	*
16r	.	16r	.
*	*	*^	*
16C\ 16F\ 16c\	.	16dd-/Jk	16a-\	.
4.C\ 4.E\ 4.c\	.	(20dd-/LL	4.g\	.
.	.	20cc/	.	.
.	.	20dd-/	.	.
.	.	20ee-/	.	.
.	.	20dd-/JJ	.	.
.	.	8cc/L)	.	.
*	*	*v	*v	*
16r	.	16r	.
16E\ 16G\ 16c\	.	16bb-/Jk	.
=129	=129	=129	=129
*MM90	*MM90	*MM90	*MM90
8F\ 8A-\ 8c\L	.	(20bb-\LL	.
.	.	20aa-\	.
.	.	20bb-\	.
8F\ 8A-\ 8c\J	.	.	.
.	.	20ccc\	.
.	.	20bb-\JJ)	.
8r	.	8aa-\L	.
8F#\ 8A\ 8e-\	.	8ccc\J	.
8G\ 8B\ 8d\L	.	(20ccc\LL	.
.	.	20bb\	.
.	.	20ccc\	.
8G\ 8B\ 8d\J	.	.	.
.	.	20ddd\	.
.	.	20ccc\JJ)	.
8r	.	8bb\L	.
8G\ 8B\ 8f\	.	8ddd\J	.
=130	=130	=130	=130
*MM100	*MM100	*MM100	*MM100
8A-\ 8c\ 8e-\L	.	(20ddd\LL	.
.	.	20ccc\	.
.	.	20ddd\	.
8A-\ 8c\ 8e-\J	.	.	.
.	.	20eee-\	.
.	.	20ddd\JJ)	.
8r	.	8ccc\L	.
8A\ 8c\ 8f\	.	8eee-\J	.
8B-\ 8d\ 8f\L	.	(20eee-\LL	.
.	.	20ddd\	.
.	.	20eee-\	.
8B-\ 8d\ 8f\J	.	.	.
.	.	20fff\	.
.	.	20eee-\JJ)	.
8r	.	8ddd\L	.
8B\ 8d\ 8g\	.	8fff\J	.
=131	=131	=131	=131
*MM105	*MM105	*MM105	*MM105
*	*	*8va	*
8c\ 8e-\ 8g\L	.	(20fff\LL	.
.	.	20eee-\	.
.	.	20fff\	.
8c\ 8e-\ 8g\J	.	.	.
.	.	20ggg\	.
.	.	20fff\JJ)	.
*clefG2	*clefG2	*	*
8r	.	8eee-\L	.
8c/ 8e-/ 8g/	.	8ggg\J	.
8d/ 8f/ 8a-/ 8b/L	.	(20ggg\LL	.
.	.	20fff\	.
.	.	20ggg\	.
8d/ 8f/ 8a-/ 8b/J	.	.	.
.	.	20aaa-\	.
.	.	20ggg\JJ)	.
8r	.	8fff\L	.
8d/ 8f/ 8a-/ 8b/	.	8aaa-\J	.
=132	=132	=132	=132
*MM110	*MM110	*MM110	*MM110
8e-/ 8g/ 8cc/L	.	(20aaa-\LL	.
.	.	20ggg\	.
.	.	20aaa-\	.
8e-/ 8g/ 8cc/J	.	.	.
.	.	20bbb-\	.
.	.	20aaa-\JJ)	.
8r	.	8ggg\L	.
8e/ 8g/ 8cc/	.	8bbb-\J	.
8f/ 8a-/ 8cc/L	.	(20bbb-\LL	.
.	.	20aaa-\	.
.	.	20bbb-\	.
8f/ 8a-/ 8cc/J	.	.	.
.	.	20cccc\	.
.	.	20bbb-\JJ)	.
8r	.	8aaa-\L	.
8f/ 8a-/ 8dd/	.	8bbb\J	.
=133	=133	=133	=133
*MM120	*MM120	*MM120	*MM120
8f#\ 8a\ 8ee-\L	.	(16cccc\LL	ff
.	.	16eeee-\)	.
(16aa\L	.	16aaa\	.
16ccc\JJ)	.	16cccc\JJ	.
(16ff#\LL	.	(16fff#\LL	.
16aa\)	.	16aaa\)	.
(16ee-\	.	(16eee-\	.
16ff#\JJ)	.	(16fff#\JJ)	.
*	*	*X8va	*
(16cc\LL	.	16ccc\LL	.
16ee-\)	.	16eee-\)	.
(16a\	.	16aa\	.
16cc\JJ)	.	16ccc\JJ	.
(16f#/LL	.	(16ff#\LL	.
16a/)	.	16aa\)	.
(16e-/	.	(16ee-\	.
16f#/JJ)	.	16ff#\JJ)	.
*clefF4	*clefF4	*	*
=134	=134	=134	=134
(16d\LL	.	(16dd\LL	.
16f\)	.	16ff\)	.
(16B\	.	(16b\	.
16d\JJ)	.	16dd\JJ)	.
16A-\LL	.	16a-/LL	.
16B\	.	16b/	.
(16F\	.	(16f/	.
16A-\JJ)	.	16a-/JJ)	.
(16D\LL	.	(16d/LL	.
16F\)	.	16f/)	.
(16BB\	.	(16B/	.
16D\JJ)	.	16d/JJ)	.
(16AA-/LL	.	(16A-/LL	.
16BB/)	.	16B/	.
(16AA-/	.	(16A-/)	.
16BB/JJ)	.	16B/JJ)	.
=135	=135	=135	=135
16GG/LL	.	16G/LL	p
16BB/	.	16B/	.
16C/	.	16c/	.
16D/JJ	.	16d/JJ	.
16E-\LL	.	16e-/LL	.
16F\	.	16f/	.
16G\	.	16g/	.
16A-\JJ	.	16a-/JJ	.
16B\LL	.	16b\LL	.
16c\	.	16cc\	.
16d\	.	16dd\	.
16e-\JJ	.	16ee-\JJ	.
*clefG2	*clefG2	*	*
16f/LL	.	16ff\LL	.
16f#/J	.	16ff#\	.
8g/J	.	16gg\	.
.	.	16ff#\JJ	.
*clefF4	*clefF4	*	*
=136	=136	=136	=136
4CC'/ 4C'/	.	16aa-\LL	ff
.	.	16gg\	.
.	.	16ee-\	.
.	.	16cc\JJ	.
4EE-'/ 4E-'/	.	16aa-\LL	.
.	.	16gg\	.
.	.	16ee-\	.
.	.	16cc\JJ	.
2BBB/ 2BB/	.	16aa-\LL	.
.	.	16gg\	.
.	.	16ff\	.
.	.	16dd\JJ	.
.	.	16aa-\LL	.
.	.	16gg\	.
.	.	16ff\	.
.	.	16dd\JJ	.
=137	=137	=137	=137
4BBB-'/ 4BB-'/	.	16ddd-\LL	.
.	.	16ccc\	.
.	.	16gg\	.
.	.	16ee\JJ	.
4CC'/ 4C'/	.	16ddd-\LL	.
.	.	16ccc\	.
.	.	16gg\	.
.	.	16ee\JJ	.
2AAA/ 2AA/	.	16ggg\LL	.
.	.	16fff\	.
.	.	16ccc\	.
.	.	16ff\JJ	.
.	.	16ggg\LL	.
.	.	16fff\	.
.	.	16ccc\	.
.	.	16ff\JJ	.
=138	=138	=138	=138
4AAA-'/ 4AA-'/	.	16ggg\LL	.
.	.	16fff#\	.
.	.	16eee-\	.
.	.	16ccc\JJ	.
4CC'/ 4C'/	.	16ggg\LL	.
.	.	16fff#\	.
.	.	16eee-\	.
.	.	16ccc\JJ	.
(4GGG'/ 4GG'/	.	16aaa-\LL	.
.	.	16ggg\	.
.	.	16eee-\	.
.	.	16ccc\JJ	.
8.CC/) 8.C/L	.	16fff\LL	.
.	.	16eee-\	.
.	.	16ccc\	.
16EE-/ 16E-/Jk	.	16gg\JJ	.
=139	=139	=139	=139
4GG'/ 4G'/	.	16fff\LL	.
.	.	16eee-\	.
.	.	16ccc\	.
.	.	16gg\JJ	.
4GGG'/ 4GG'/	.	16eee-\LL	.
.	.	16ddd\	.
.	.	16bb\	.
.	.	16ff\JJ	.
*	*	*^	*
16r	.	4ccc'/	8ee-\ 8gg\L	.
16d\LL	.	.	.	.
16c\	.	.	8ee-\ 8gg\	.
16B\JJ	.	.	.	.
16c\LL	.	4eee-'/	8ee-\ 8gg\	.
16d\	.	.	.	.
16e-\	.	.	8ee-\ 8gg\J	.
16c\JJ	.	.	.	.
=140	=140	=140	=140	=140
16r	.	2bb/	8dd\ 8gg\L	.
16AA/LL	.	.	.	.
16GG/	.	.	8dd\ 8gg\	.
16FF#/JJ	.	.	.	.
16GG/LL	.	.	8dd\ 8gg\	.
16AA/	.	.	.	.
16BB/	.	.	8dd\ 8gg\J	.
16GG/JJ	.	.	.	.
16r	.	4bb-'/	8cc\ 8gg\L	.
16f\LL	.	.	.	.
16e\	.	.	8cc\ 8gg\	.
16d\JJ	.	.	.	.
16e\LL	.	4ccc'/	8cc\ 8gg\	.
16f\	.	.	.	.
16g\	.	.	8cc\ 8gg\J	.
16e\JJ	.	.	.	.
=141	=141	=141	=141	=141
16r	.	2aa/	8cc\ 8ff\L	.
16GG/LL	.	.	.	.
16FF/	.	.	8cc\ 8ff\	.
16EE/JJ	.	.	.	.
16FF/LL	.	.	8cc\ 8ff\	.
16GG/	.	.	.	.
16AA/	.	.	8cc\ 8ff\J	.
16FF/JJ	.	.	.	.
16r	.	4aa-'/	8cc\ 8ff\L	.
16G\LL	.	.	.	.
16F\	.	.	8cc\ 8ff\	.
16E\JJ	.	.	.	.
16F\LL	.	4ccc'/	8cc\ 8ff\	.
16G\	.	.	.	.
16A-\	.	.	8cc\ 8ee-\J	.
16F#\JJ	.	.	.	.
=142	=142	=142	=142	=142
16G/LL	.	(4gg/	4cc\ 4ee-\	.
16E-/	.	.	.	.
16C/	.	.	.	.
16GG/JJ	.	.	.	.
*	*	*8va	*8va	*
16EE-/LL	.	8.ccc/L	8.cc\L	.
16GG/	.	.	.	.
16EE-/	.	.	.	.
16CC/JJ	.	16eee-/Jk	16ee-\Jk	.
16BBB/LL	.	8ggg/L)	8gg\	.
16GG/	.	.	.	.
16DD/	.	8ggg'/J	8r	.
16GG/JJ	.	.	.	.
16EE-/LL	.	4ryy	(8.ggg\L	.
16GG/	.	.	.	.
16FF/	.	.	.	.
16GG/JJ	.	.	32fff#\LL	.
.	.	.	32ggg\JJJ)	.
*	*	*v	*v	*
=143	=143	=143	=143
16EE-/LL	.	(8ggg\L	.
16GG/	.	.	.
16DD/	.	8bbb\J)	.
16GG/JJ	.	.	.
16EE-/LL	.	(8bbb\L	.
16GG/	.	.	.
16CC/	.	8cccc\J)	.
*	*	*X8va	*
16GG/JJ	.	.	.
16BBB/LL	.	8r	.
16GG/	.	.	.
16DD/	.	(8.gg\L	.
16GG/JJ	.	.	.
16EE-/LL	.	.	.
16GG/	.	32ff#\LL	.
.	.	32gg\JJJ)	.
16FF/	.	8gg'\	.
16GG/JJ	.	.	.
=144	=144	=144	=144
16EE-/LL	.	(8gg\L	.
16GG/	.	.	.
16DD/	.	8bb\J)	.
16GG/JJ	.	.	.
16EE-/LL	.	(8bb\L	.
16GG/	.	.	.
16CC/	.	8ccc\J)	.
16GG/JJ	.	.	.
16BBB/LL	.	8r	.
16GG/	.	.	.
16DD/	.	8g/	.
16GG/JJ	.	.	.
16AA-/LL	.	16a-/LL	.
16GG/	.	16g/	.
16AA/	.	16a/	.
16BB/JJ	.	16b/JJ	.
=145	=145	=145	=145
16C\LL	.	16cc\LL	.
16D\	.	16dd\	.
16E-\	.	16ee-\	.
16D\JJ	.	16dd\JJ	.
16E-\LL	.	16ee-\LL	.
16E\	.	16ee\	.
16F\	.	16ff\	.
16E\JJ	.	16ee\JJ	.
16F\LL	.	16ff\LL	.
16F#\	.	16ff#\	.
16G\	.	16gg\	.
16F#\JJ	.	16ff#\JJ	.
16G\LL	.	16gg\LL	.
16A\	.	16aa\	.
16B-\	.	16bb-\	.
16B\JJ	.	16bb\JJ	.
*clefG2	*clefG2	*	*
=146	=146	=146	=146
*	*	*8va	*
16c/LL	.	16ccc\LL	.
16d/	.	16ddd\	.
16e-/	.	16eee-\	.
16d/JJ	.	16ddd\JJ	.
16e-/LL	.	16eee-\LL	.
16e/	.	16eee\	.
16f/	.	16fff\	.
16e/JJ	.	16eee\JJ	.
16f/LL	.	16fff\LL	.
16f#/	.	16fff#\	.
16g/	.	16ggg\	.
16f#/JJ	.	16fff#\JJ	.
16g/LL	.	16ggg\LL	.
16a/	.	16aaa\	.
16b-/	.	16bbb-\	.
16b/JJ	.	16bbb\JJ	.
=147	=147	=147	=147
4cc/	.	4cccc\	ff
*	*	*X8va	*
*clefF4	*clefF4	*	*
4CC/ 4C/	.	4c/ 4cc/	.
4r	.	4r	.
4CC/ 4C/	.	4e#/ 4e#/ 4a/ 4ee-/	.
=148	=148	=148	=148
4r	.	4r	.
4CC/ 4C/	.	4d/ 4f/ 4a-/ 4b/	.
4r	.	4r	.
4CC/ 4C/	.	4f/ 4a-/ 4b/ 4dd/	.
=149	=149	=149	=149
4r	.	4r	.
4CC/ 4C/	.	4d-'/ 4e'/ 4g'/ (4b-'/	.
4r	.	4r	.
4CC/ 4C/	.	4e'/ 4g'/ 4b-'/ 4dd-'/	.
=150	=150	=150	=150
4r	.	4r	.
4CC/ 4C/	.	4c'/ 4f'/ 4a'/	.
4r	.	4r	.
4CC/ 4C/	.	4f'/ 4a'/ 4cc'/)	.
=151	=151	=151	=151
8r	.	2r	.
16C/LL	p	.	.
16D-/JJ	.	.	.
16C/LL	.	.	.
16BB-/	.	.	.
16AA-/	.	.	.
16GG/JJ	.	.	.
16FF/LL	.	2f/ 2a-/ 2cc/	p
16C/	.	.	.
16D-/	.	.	.
16C/JJ	.	.	.
16BB-/LL	.	.	.
16AA-/	.	.	.
16GG/	.	.	.
16FF/JJ	.	.	.
=152	=152	=152	=152
*	*	*^	*
16EE/LL	.	2cc/	2g\ 2b-\	.
16C/	.	.	.	.
16D-/	.	.	.	.
16C/JJ	.	.	.	.
16BB-/LL	.	.	.	.
16GG/	.	.	.	.
16EE/	.	.	.	.
16C/JJ	.	.	.	.
16FF/LL	.	(4.cc/	2f\ 2a-\	.
16C/	.	.	.	.
16D-/	.	.	.	.
16C/JJ	.	.	.	.
16BB-/LL	.	.	.	.
16AA-/	.	.	.	.
16GG/	.	8b/ 8dd/	.	.
16FF/JJ	.	.	.	.
=153	=153	=153	=153	=153
16CC/LL	.	4cc/ 4ee/	4e\ 4g\	.
16DD/	.	.	.	.
16EE/	.	.	.	.
16FF/JJ	.	.	.	.
16GG/LL	.	4cc/)	(8e\L	.
16CC/	.	.	.	.
16DD/	.	.	16f\L	.
16EE/JJ	.	.	16g\JJ)	.
16FF/LL	.	2a-/ 2cc/	2f\	.
16C/	.	.	.	.
16D-/	.	.	.	.
16C/JJ	.	.	.	.
16BB-/LL	.	.	.	.
16AA-/	.	.	.	.
16GG/	.	.	.	.
16FF/JJ	.	.	.	.
=154	=154	=154	=154	=154
16EE/LL	.	2cc/	2g\ 2b-\	.
16C/	.	.	.	.
16D-/	.	.	.	.
16C/JJ	.	.	.	.
16BB-/LL	.	.	.	.
16GG/	.	.	.	.
16EE/	.	.	.	.
16C/JJ	.	.	.	.
16FF/LL	.	(4.cc/	2f\ 2a-\	.
16C/	.	.	.	.
16D-/	.	.	.	.
16C/JJ	.	.	.	.
16BB-/LL	.	.	.	.
16AA-/	.	.	.	.
16GG/	.	8ff/	.	.
16FF/JJ	.	.	.	.
=155	=155	=155	=155	=155
16CC/LL	.	4ee/ 4gg/	4g\ 4cc\	.
16DD/	.	.	.	.
16EE/	.	.	.	.
16FF/JJ	.	.	.	.
16GG/LL	.	4cc/)	(8e\L	.
16CC/	.	.	.	.
16DD/	.	.	16f\L	.
16EE/JJ	.	.	16g\JJ)	.
16FF/LL	.	2f/ 2a-/ 2cc/	2c\	.
16C/	.	.	.	.
16D-/	.	.	.	.
16C/JJ	.	.	.	.
16BB-/LL	.	.	.	.
16AA-/	.	.	.	.
16GG/	.	.	.	.
16FF/JJ	.	.	.	.
=156	=156	=156	=156	=156
16EE/LL	.	2cc/	2c\ 2g\ 2b-\	.
16C/	.	.	.	.
16D-/	.	.	.	.
16C/JJ	.	.	.	.
16BB-/LL	.	.	.	.
16GG/	.	.	.	.
16EE/	.	.	.	.
16C/JJ	.	.	.	.
16FF/LL	.	4.a-/ (4.cc/	4.c\ 4.f\	.
16AA-/	.	.	.	.
16FF/	.	.	.	.
16CC/JJ	.	.	.	.
16FF/LL	.	.	.	.
16AA-/	.	.	.	.
16FF/	.	8aa-/ 8bb/)	8dd\ 8ff\	.
16CC/JJ	.	.	.	.
*	*	*v	*v	*
=157	=157	=157	=157
16FF/LL	.	1dd 1ff 1aa- 1bb	.
16AA-/	.	.	.
16FF/	.	.	.
16CC/JJ	.	.	.
16FF/LL	.	.	.
16AA-/	.	.	.
16FF/	.	.	.
16CC/JJ	.	.	.
16FF/LL	.	.	.
16AA-/	.	.	.
16FF/	.	.	.
16CC/JJ	.	.	.
16FF/LL	.	.	.
16AA-/	.	.	.
16FF/	.	.	.
16CC/JJ	.	.	.
=158	=158	=158	=158
16GG/LL	.	2ee\ 2gg\ 2ccc\	p
16C/	.	.	.
16GG/	.	.	.
16CC/JJ	.	.	.
16GG/LL	.	.	.
16C/	.	.	.
16GG/	.	.	.
16CC/JJ	.	.	.
16GG/LL	.	2ee\ 2gg\ 2ccc\	.
16E/	.	.	.
16GG/	.	.	.
16CC/JJ	.	.	.
16GG/LL	.	.	.
16E/	.	.	.
16GG/	.	.	.
16CC/JJ	.	.	.
=159	=159	=159	=159
1CCC 1CC	.	1ee 1gg 1ccc	pp
==	==	==	==
*-	*-	*-	*-
!!!ENC: Craig Stuart Sapp
!!!END: 2004/04/07/
!!!ONB: not proofread yet.  some rest/note interpolations by SharpEye
!!!EEV: 2014/07/13/ (added ottavas)
